X:6
T:La belle Catherine
N:From the repertoire of "Pitou Boudreault"
P:AAABBAAACC
M:4/4
L:1/8
K:D
P:A
D2FA dfed | c2Ac B2GB | A3A FAdf | g2f2 ecd2  ||
P:B
fa2a fdef gb2b | fa2a fdef | gbfa ecd2 ||
P:C
DFAF DFAF | DGBG DGBG |1 DFAF DFAF | A,CEC A,CEC :|2 ABAG FAdf | g2f2 ecd2 |]

